!!!COM: Johannes Brahms
!!!CNT: Deutscher 
!!!TXO: Deutsche
!!!OTL: Wie die Wolke nach der Sonne
!!!OPS: Op.6
!!!ONM: No. 5
!!!LYR: Hoffmann von Fallersleben
!!!ONB: Original key: B Major
!!!ENC: Ayako Kataoka        
!!!EED: Leigh VanHandel
!!!YOR: C.F. Peters, Brahms Lieder fu2r eine Singstimme mit Klavierbegleitung, Band III, ausgabe fu2r tiefere Stimme
!!!ODT: 1853/
!!NB: Vocal melody and text only encoded.
**kern	**silbe
*clef	*
*k[b-e-a-d-]	*
*M4/4	*
*MM[andante]	*
=1	=1
{4.a-	{Wie
8b-	die
4cc	Wol-
4e-	-ke
=2	=2
4.a-	nach
8b-	der
4cc	Son-
4e-	-ne
=3	=3
4a-	voll
4cc	Ver-
4ee-	-lan-
4cc	-gen
=4	=4
4a-	irrt
4b-	und
4cc}	bangt,}
4r	.
=5	=5
{4a-	{und
4a-	durch-
4.dd-	-glu2ht
8dd-	von
=6	=6
4.dd-	Him-
8cc	-mels-
4cc	-won-
8b-	-ne
8r	.
=7	=7
2.dd-	ster-
4b-	-bend
=8	=8
(4g-	ihr
4d-	am
4d-	Bu-
4a-)	-sen
=9	=9
2gn}	hangt;}
2r	.
=13	=13
*k[f#c#g#d#a#]	*k[f#c#g#d#a#]
{4.g#	{wie
8a#	der
4b	Aar
4d#	auf
=14	=14
4.b	Wol-
8cc#	-ken-
4dd#	-pfa-
4b	-de
=15	=15
4ee	seh-
4b	-nend
4a#	steigt
4g#	ins
=16	=16
4g#	Him-
4cc#	-mels-
4a#}	-zelt}
4r	.
=17	=17
{4.cc#	{und
8dd#	ber-
4ee	-auscht
4g#	vom
=18	=18
4.cc#	Son-
8dd#	-nen-
4ee	-ba-
4cc#	-de
=19	=19
(4ee	blind
4dd#	zur
4cc##	Er-
4cc#)	-de
=20	=20
2.b#	nie-
4bn	-der-
=21	=21
2a#}	-fa2llt:}
2r	.
=23	=23
*k[b-e-a-d-]	*k[b-e-a-d-]
{4.a-	{So
8b-	auch
4cc	muss
4e-	ich
=24	=24
4.a-	schmach-
8b-	-ten,
4cc	ban-
4e-	-gen,
=25	=25
4a-	spa2hn
4cc	und
4ee-	trach-
4cc	-ten,
=26	=26
(4a-	dich
4b-	zu
4cc)}	sehn,}
4r	.
=27	=27
{4a-	{will
4a-	an
4.dd-	dei-
8dd-	-nen
=28	=28
4.dd-	Bli-
8cc	-cken
4cc	han-
8b-	-gen
8r	.
=29	=29
2.dd-	und
4b-	an
=30	=30
4g-	ih-
4d-	-rem
4d-	Glanz
4a-	ver-
=31	=31
4gn}	-gehn,}
4r	.
{[2dd-	{und
=32	=32
2dd-]	|
2dd-	an
=33	=33
2.dd-	ih-
4dd-	-rem
=34	=34
2cc	glanz
2b-	ver-
=35	=35
[1dd-	-gehn,
=36	=36
4dd-]}	|}
4r	.
{2f	{ver-
=37	=37
1e-}	-gehn.}
*-	*-
